X: 4619
T: Bourrée Les Moutons
R: polka
M: 2/4
K: Cmajor
|:G|Az Bz|c3g|f>e df|ed cG|
Az Bz|c>c ce|d/c/B/c/ de|c3:|
|:c/d/|e>f ed|ed cg|a>g ge|fe d2|
e>f ed|ed cG|Ac ed|c2 c:|

